dist/svg/arrow-up.svg

<svg width="16" height="16" viewBox="0 0 16 16" fill="rgb(34, 34, 34)" xmlns="http://www.w3.org/2000/svg"><title>arrow-up</title><path d="M12.311 8.103L8.98501 4.796V15.001H6.98501V4.812L3.69301 8.117L2.27701 6.705L7.98201 0.979004L13.721 6.686L12.311 8.103Z" fill="rgb(34, 34, 34)" fill-opacity="1.00"/></svg>

<!-- Generated by Trend Micro Style Portal -->
<svg version="1.1" xmlns="http://www.w3.org/2000/svg" width="16" height="16" viewBox="0 0 16 16">
  <title>arrow-up</title>
  <path fill="rgb(34,34,34)" d="M12.311 8.103l-3.326-3.307v10.205h-2v-10.189l-3.292 3.305-1.416-1.412 5.705-5.726 5.739 5.707z"></path>
</svg>
